X: 3154
T: Beauty Spot, The
R: reel
M: 4/4
K: Dmajor
c|ABGB Addc|ABGF EFG2|ABGB AddB|cAGE FDDc|
ABGB Addc|ABGF EFG2|AGAE BABd|cAGE FDDg|
edcd eddg|edcd eaag|edcd eddc|ABcd eddg|
edcd eddg|edcd eaag|(3efg dB cAGB|ABcd eddc|

